X:1
T:Mrs. Rigg Junr.
T:Mrs. Rigg Junr.
T:Nathaniel Gow (1763-1831)
C:Nathaniel Gow (1763-1831)
L:1/8
M:6/8
K:Gmin
V:1 treble 
V:1
 D | G2 G (B/c/d).B | FAc fcA | G2 G B/c/d.B | GBd gdg | faf dfd | cfd cAF | G2 G (A/B/c).A | %8
{^F} G3 G2 :| d | g>ag bag | f>gf fga | g>ag bag | gdg gab | g>ag bag | f>cf fga | gdg a^fa | %17
 Tg3{^fg} g2 d | g>ag bag | f>gf fga | g>ag bag | (f.e)_e dcB | dfd Bcd | c=ef cAF | GBc{^c} d2 D | %25
{^F} G3 G,2 || %26

